X: 357
T: Andy de Jarlis
C:Traditional
B: jims roots
M:6/8
L:1/8
Q: 3/8=100
K:E
V:1 
%Q:=128
|:"E"EGB EGB|EGB c2B|EGB EGB|"D"=DFA B2A|
"E"EGB EGB|EGB c2a|gfe "B"Bcd|[1"E"efe e3:|[2"E"efe e2a||
|:"E"g2g efg|"A"a2a c3|"B"f2ff2e|dBB Bga|
"E"g2g efg|"A"a2a c3|"B"d2d Bcd|[1"E"efe ega:|[2"E"efe e3||
% abcbook-tune_id 6298c2450dee82dcf2e7c5e2


% abcbook-boost 0
% abcbook-tablature 
% abcbook-transpose 
% abcbook-lastupdated 1654178373185
% abcbook-soundfonts 
% abcbook-repeats 1


